X: 195
T:Tsur Mishelo
C:Ladino 1974
I: Dance taught by Shlomo and Dina Bachar
O:Israel
F: http://www.youtube.com/watch?v=_wGc0MqhBZ8
M:4/4
L:1/4
Q:1/4=210
K:DPhr
DG2A |BAGB |AG^FE |Dz2D |
G3 A |BAGB |Az  AB|cBAc |BAGB|
AG^FE|D2z2 |AGG^F |^FEED|
DE^FG|A2 AB|cBAc  | BAGB|
AG^FE|D2z2 |AGG^F |^FEED|D2z2|



